X: 622
T: the Ivy Leaf   #2
R: reel
%S: s:2 b:10(5+5)
B: Francis O'Neill: "The Dance Music of Ireland" (1907) #622
Z: Frank Nordberg - http://www.musicaviva.com
F: http://www.musicaviva.com/abc/tunes/ireland/oneill-1001/0622/oneill-1001-0622-1.abc
M: C
L: 1/8
K: Amix
"^A"\
|: A2(ed) cdec | A2(ec) dBGB | A2(ed) cdec | BGEF GABG "^B":: (ea)ag edBd |
| gfgd BGBd |[1 (ea)ag edcB | AGEF GABG :|[2 AGAB cBcd | (3efg fa ged"_d.C."B |]
